svgs/light/diagram-project.svg

<svg xmlns="http://www.w3.org/2000/svg" viewBox="0 0 576 512"><!--! Font Awesome Pro 6.6.0 by @fontawesome - https://fontawesome.com License - https://fontawesome.com/license (Commercial License) Copyright 2024 Fonticons, Inc. --><path d="M136 64c13.3 0 24 10.7 24 24l0 24 0 32 0 24c0 13.3-10.7 24-24 24l-80 0c-13.3 0-24-10.7-24-24l0-80c0-13.3 10.7-24 24-24l80 0zm56 104l0-24 192 0 0 24c0 30.9 25.1 56 56 56l80 0c30.9 0 56-25.1 56-56l0-80c0-30.9-25.1-56-56-56l-80 0c-30.9 0-56 25.1-56 56l0 24-192 0 0-24c0-30.9-25.1-56-56-56L56 32C25.1 32 0 57.1 0 88l0 80c0 30.9 25.1 56 56 56l80 0c8.6 0 16.7-1.9 24-5.4l72.2 96.3c-5.2 8.5-8.2 18.5-8.2 29.1l0 80c0 30.9 25.1 56 56 56l80 0c30.9 0 56-25.1 56-56l0-80c0-30.9-25.1-56-56-56l-80 0c-8.6 0-16.7 1.9-24 5.4l-72.2-96.3c5.2-8.5 8.2-18.5 8.2-29.1zm224 0l0-24 0-32 0-24c0-13.3 10.7-24 24-24l80 0c13.3 0 24 10.7 24 24l0 80c0 13.3-10.7 24-24 24l-80 0c-13.3 0-24-10.7-24-24zM360 320c13.3 0 24 10.7 24 24l0 80c0 13.3-10.7 24-24 24l-80 0c-13.3 0-24-10.7-24-24l0-80c0-13.3 10.7-24 24-24l80 0z"/></svg>

<svg xmlns="http://www.w3.org/2000/svg" viewBox="0 0 576 512"><!--! Font Awesome Pro 6.4.2 by @fontawesome - https://fontawesome.com License - https://fontawesome.com/license (Commercial License) Copyright 2023 Fonticons, Inc. --><path d="M136 64c13.3 0 24 10.7 24 24v24 32 24c0 13.3-10.7 24-24 24H56c-13.3 0-24-10.7-24-24V88c0-13.3 10.7-24 24-24h80zm56 104V144H384v24c0 30.9 25.1 56 56 56h80c30.9 0 56-25.1 56-56V88c0-30.9-25.1-56-56-56H440c-30.9 0-56 25.1-56 56v24H192V88c0-30.9-25.1-56-56-56H56C25.1 32 0 57.1 0 88v80c0 30.9 25.1 56 56 56h80c8.6 0 16.7-1.9 24-5.4l72.2 96.3c-5.2 8.5-8.2 18.5-8.2 29.1v80c0 30.9 25.1 56 56 56h80c30.9 0 56-25.1 56-56V344c0-30.9-25.1-56-56-56H280c-8.6 0-16.7 1.9-24 5.4l-72.2-96.3c5.2-8.5 8.2-18.5 8.2-29.1zm224 0V144 112 88c0-13.3 10.7-24 24-24h80c13.3 0 24 10.7 24 24v80c0 13.3-10.7 24-24 24H440c-13.3 0-24-10.7-24-24zM360 320c13.3 0 24 10.7 24 24v80c0 13.3-10.7 24-24 24H280c-13.3 0-24-10.7-24-24V344c0-13.3 10.7-24 24-24h80z"/></svg>
